X:16
T:No.136 O'Donnell's Sligo Maid
M:4/4
L:1/8
C:reel
K:D
efed cdef|gedB AGEF|
G2AG BGAG|EFGA BAA2|
efed cdef|gedB AGEF|
G2AG BGAG|[1DEGA BAag:|[2DEGA BAA2||
eaag a2gf|gabg agef|
gage d2ef|gded cdef|
eaag a2gf|gabg agef|
gage d2ef|gfgd BAA2:|
